X: 475
%
U:~=!turn!
T: Mrs. Hamilton of Wishaw
C:Marshall
O:Scotland
B:Keith Norman MacDonald : "The Skye collection of the best reels & strathspeys extant" : 1887
Z:Ralph Palmer
R:Reel
M:C|
L:1/8
K:Bb
f | dB B/B/B ~B2 FB | (cd)(ed) cCCc | d>B B/B/B ~B2 FB | (AB)cA BB,B, :|
d | B/B/B (fd) bdfd | B/B/B (fd) eccd | B/B/B (fd) bdfd | (AB)cA BB,B,d |
B/B/B (fd) bdfd | B/B/B (fd) eccf | gefd ecdA | AG{/G}FE DB,B, |]


